X: 1
T: the Feller from Fortune
T: Lots of Fish in Bonavist' Harbour
O: Newfoundland
M: 6/8
L: 1/8
F: http://nfldsongs.tripod.com/01/lotsofish.htm
Z: 2010 John Chambers <jc:trillian.mit.edu>
K: G
d \
| G2B d2d | ded B2G | G2c e2e | efg d3 \
| G2B d2d | ded B2G | g2e d2B | (AB)A G3 :|
["last verse" G2B d2d | ded B2G | G2c e2e | efg d2d \
| g2g f2d | eee d2B | G2A B2G | EEF G3 |]
